X: 117
T: No_52_Toward_the_Mountains.krn
N: Derived from No_52_Toward_the_Mountains.krn
%%abc-version 2.0
%%abcx-abcm2ps-target-version 5.9.1 (29 Sep 2008)
%%abc-creator hum2abc beta
%%abcx-conversion-date 2019/03/15 08:37:56
%%humdrum-veritas 476275357
%%humdrum-veritas-data 4168136031
%%linebreak <none>
%%barnumbers 0
L: 1/8
M: 2/4
K: D clef=bass
[K:clef=bass][M:2/4]B,3/B,/A,2 | 
A,4 | 
B,3/A,/ B,3/F,/ | 
E,2E, z ]|:  
B,2A,3/E,/ | 
E,2E,3/E,/ | 
F,3/E,/ F,3/E,/ | 
D,2B,, z | 
E,2D,3/B,,/ ||  
[M:3/4]E,4D,3/A,,/ ||  
[M:2/4]D,2D,2- | 
D,4 :|]  



